X:383
T: Tuolaji yikai xizaizanxintao
N: C1885
O: China, Shanxi Xixian
S: I, 291, 1)]
N: Han
R: Xiaodiao]
M: 2/4
L: 1/16
K: E
G2B2e2ec | G3eBcBG | FGB2cBGF | E8 |
G3Bc2cB | D3FGGGB | D3CB,4 | C2C2D2C2 | B,8

